X:1
T:Yarmouth
T:D minor            Asahel Benham, 1783
T:Transcribed from Brownson's Select Harmony, 1783.
T:Isaac Watts, 1719 (Psalm 102, Part 1)              86. 86. (C. M.)
%%score [ 1 2 3 4 ]
L:1/8
Q:1/4=80
M:4/4
K:F
V:1 treble nm="Tr." snm="Tr."
V:2 treble nm="C." snm="C."
V:3 treble-8 nm="T." snm="T."
V:4 bass nm="B." snm="B."
V:1
"_1. As   on  some  lone – ly  buil         –      ding's   top      The  sparrow  tells __________________  her    moan,     Far  from the tents  of  joy  and  hope   I" A8 | %1
 A2 c2 c2 B2 | c6 c2 | d6 cB | A2 A2 (B2 AB | c>BAB c2) c2 | c8- | c4 c4 | c2 c>d e2 e2 | %9
 d2 f2 e>d cB | %10
"_1. sit and grieve ______________________________________  a   –   lone,   I       sit ______ and  grieve  a – lone." A2 G2 (c3 d | %11
 c>dcf e>fed | c>dcB A2) c2 | f2 c>B (A2 F2 | c2) c2 A2 A2 | A8 |] %16
V:2
"_2. My  looks  like withered  leaves               ap  – pear;   And  life's  de – cli        –        –        –        ning   light       Grows faint as  evening shadows are   That \n3. But   thou  for  ev – er     art                      the   same,    O     my    e  –  ter       –        –        –          nal   God;       Ages to come shall know thy name,    And" D8 | %1
 F2 G2 A2 FD | E6 E2 | F6 G2 | A2 A2 (G3 A | G3 F E2) A2 | A8 | z4 F4 | F2 F2 G2 E2 | F2 D2 G2 E2 | %10
"_2. vanish in          –         –         –         –         –         –         –       to    night,  That    va      –     nish   in  – to   night.\n3. spread thy works ___________________________________  a –  broad,  And    spread       thy  works  a–broad." F2 c2 (A3 F | %11
 G8 | F6) G2 | A2 A2 (A4 | G2) G2 F2 E2 | D8 |] %16
V:3
"_4. Thou wilt a–rise  and    show ________  thy    face,    Nor  will my  Lord __________________  de  –  lay         Beyond  th'ap–poin–ted hour of grace, That\n5. He hears his saints, he  knows _______  their   cry,     And  by  my–ste    –        –        –        –      rious  ways      Redeems the prisoners  doomed to die, And" A8 | %1
 d2 e2 f2 d2 | (e>cA>B c2) B2 | A6 G2 | c2 d2 (d3 f | e>dcd e2) e2 | f8 | z4 A4 | F2 F2 c2 c2 | %9
 A2 A2 A>B c2 | %10
"_4. long–ex–pec    –        –        –        –        –        –        –        –    ted      day,  That  long    –     ex – pec – ted  day.\n5. fills their tongues ___________________________________ with  praise, And  fills   their tongues with praise." d2 e2 (f3 d | %11
 e>fed c>dcB | A2 F2 f2) ge | c2 A2 (d2 f2 | e2) e2 d2 ^c2 | d8 |] %16
V:4
 D,8 | D,2 C,2 F,2 G,B, | (A,2 A,,2 C,2) E,2 | D,6 E,2 | F,2 F,2 (G,3 F, | E,3 F, A,,2) A,,2 | %6
 F,8- | F,4 F,4 | A,2 A,2 C,2 C,2 | D,2 D,2 C,>B,, A,,2 | %10
"_______________________________________________\nEdited by B. C. Johnston, 2018\nMeasure 11, Treble: second note changed from F to G." D,2 C,2 (F,4 | %11
 C,8 | F,6) C>B, | A,2 F,2 (D,4 | E,2) C,2 F,G, A,2 | D,8 |] %16

